.local/share/icons/Gruvbox-Plus-Dark/mimetypes/scalable/application-vnd.oasis.opendocument.chart.svg

<svg width="256" height="256" viewBox="0 0 256 256" fill="none" xmlns="http://www.w3.org/2000/svg">
<g opacity="0.4" filter="url(#filter0_f)">
<path d="M55.0839 15.5636H155.608L216.009 75.7129L216.011 224.609C216.011 233.52 208.749 240.737 199.838 240.737H55.0838C46.1734 240.737 39 233.564 39 224.654V31.6474C39 22.737 46.1734 15.5636 55.0838 15.5636H55.0839Z" fill="#282828"/>
</g>
<path d="M55.0839 15H155.608L216.009 75.1493L216.011 224.045C216.011 232.956 208.749 240.174 199.838 240.174H55.0838C46.1734 240.174 39 233 39 224.09V31.0838C39 22.1734 46.1734 15 55.0838 15H55.0839Z" fill="#ebdbb2"/>
<path opacity="0.2" d="M199.838 240.174C208.749 240.174 216.011 232.956 216.011 224.046L216.01 186.5H39V224.09C39 233 46.1734 240.174 55.0838 240.174H199.838Z" fill="url(#paint0_linear)"/>
<path fill-rule="evenodd" clip-rule="evenodd" d="M155.608 20.3191H55.0839C49.1112 20.3191 44.3191 25.1111 44.3191 31.0838V224.09C44.3191 230.063 49.1111 234.855 55.0838 234.855H199.838C205.83 234.855 210.692 229.999 210.692 224.046V75.1493L155.608 20.3191ZM155.608 15H55.0839C46.1735 15 39 22.1734 39 31.0838V224.09C39 233 46.1734 240.174 55.0838 240.174H199.838C208.749 240.174 216.011 232.956 216.011 224.045L216.009 75.1493L155.608 15Z" fill="url(#paint1_linear)"/>
<path d="M107.353 221.36C114.133 221.36 116.563 215.69 116.563 210.5C116.563 205.31 114.133 199.64 107.353 199.64C100.603 199.64 98.1428 205.31 98.1428 210.5C98.1428 215.69 100.603 221.36 107.353 221.36ZM107.353 217.91C103.273 217.91 101.863 213.92 101.863 210.5C101.863 207.26 103.273 203.09 107.353 203.09C111.433 203.09 112.843 207.05 112.843 210.5C112.843 213.71 111.403 217.91 107.353 217.91ZM120.924 200V221H127.284C134.994 221 137.514 215.3 137.514 210.5C137.514 205.28 134.754 200 127.404 200H120.924ZM127.794 217.61H124.524V203.39H128.124C132.114 203.39 133.794 206.96 133.794 210.5C133.794 213.8 132.264 217.61 127.794 217.61ZM149.911 221.36C153.661 221.36 155.971 219.35 157.261 216.44L153.931 215.18C152.971 216.77 151.801 217.88 149.911 217.88C146.371 217.88 144.841 213.98 144.841 210.5C144.841 207.2 146.041 203.09 149.911 203.09C151.891 203.09 152.941 203.99 153.991 205.58L157.231 204.11C156.331 201.89 153.901 199.64 149.911 199.64C143.431 199.64 141.121 205.67 141.121 210.5C141.121 215.69 143.371 221.36 149.911 221.36Z" fill="url(#paint2_linear)"/>
<path d="M114.111 107.444H141.889V163H114.111V107.444ZM78 79.6667H105.778V163H78V79.6667ZM150.222 63H178V163H150.222V63Z" fill="url(#paint3_linear)"/>
<path opacity="0.25" d="M155.608 17V61.2306C155.608 70.141 162.867 77.1605 171.777 77.1605L216.009 77.1493V75.1493L155.608 17Z" fill="#282828"/>
<path d="M155.608 15V59.2306C155.608 68.141 162.867 75.1605 171.777 75.1605L216.009 75.1493L155.608 15Z" fill="url(#paint4_linear)"/>
<defs>
<filter id="filter0_f" x="23.8778" y="0.441412" width="207.255" height="255.418" filterUnits="userSpaceOnUse" color-interpolation-filters="sRGB">
<feFlood flood-opacity="0" result="BackgroundImageFix"/>
<feBlend mode="normal" in="SourceGraphic" in2="BackgroundImageFix" result="shape"/>
<feGaussianBlur stdDeviation="7.5611" result="effect1_foregroundBlur"/>
</filter>
<linearGradient id="paint0_linear" x1="127.507" y1="186.5" x2="127.507" y2="240.175" gradientUnits="userSpaceOnUse">
<stop offset="1e-07" stop-color="#8ec07c"/>
<stop offset="1" stop-color="#689d6a"/>
</linearGradient>
<linearGradient id="paint1_linear" x1="127.507" y1="15" x2="127.507" y2="240.178" gradientUnits="userSpaceOnUse">
<stop offset="1e-07" stop-color="#8ec07c"/>
<stop offset="1" stop-color="#689d6a"/>
</linearGradient>
<linearGradient id="paint2_linear" x1="127.502" y1="192" x2="127.502" y2="240.001" gradientUnits="userSpaceOnUse">
<stop offset="1e-07" stop-color="#8ec07c"/>
<stop offset="1" stop-color="#689d6a"/>
</linearGradient>
<linearGradient id="paint3_linear" x1="128.001" y1="63" x2="128.001" y2="163.002" gradientUnits="userSpaceOnUse">
<stop offset="1e-07" stop-color="#8ec07c"/>
<stop offset="1" stop-color="#689d6a"/>
</linearGradient>
<linearGradient id="paint4_linear" x1="185.809" y1="15" x2="185.809" y2="75.1616" gradientUnits="userSpaceOnUse">
<stop offset="1e-07" stop-color="#8ec07c"/>
<stop offset="1" stop-color="#689d6a"/>
</linearGradient>
</defs>
</svg>

<svg width="256" height="256" fill="none" version="1.1" viewBox="0 0 256 256" xmlns="http://www.w3.org/2000/svg">
  <path d="m55.08 15h100.5l60.4 60.15 2e-3 148.9c0 8.911-7.262 16.13-16.17 16.13h-144.8c-8.91 0-16.08-7.174-16.08-16.08v-193c0-8.91 7.173-16.08 16.08-16.08h1e-4z" fill="#ebdbb2"/>
  <path d="m199.8 240.2c8.911 0 16.17-7.218 16.17-16.13l-1e-3 -37.55h-177v37.59c0 8.91 7.173 16.08 16.08 16.08h144.8z" fill="url(#paint0_linear)" opacity=".2"/>
  <path d="m155.6 20.32h-100.5c-5.973 0-10.76 4.792-10.76 10.76v193c0 5.973 4.792 10.76 10.76 10.76h144.8c5.992 0 10.85-4.856 10.85-10.81v-148.9l-55.08-54.83zm0-5.319h-100.5c-8.91 0-16.08 7.173-16.08 16.08v193c0 8.91 7.173 16.08 16.08 16.08h144.8c8.911 0 16.17-7.218 16.17-16.13l-2e-3 -148.9-60.4-60.15z" clip-rule="evenodd" fill="url(#paint1_linear)" fill-rule="evenodd"/>
  <path d="m107.4 221.4c6.78 0 9.21-5.67 9.21-10.86s-2.43-10.86-9.21-10.86c-6.75 0-9.21 5.67-9.21 10.86s2.46 10.86 9.21 10.86zm0-3.45c-4.08 0-5.49-3.99-5.49-7.41 0-3.24 1.41-7.41 5.49-7.41s5.49 3.96 5.49 7.41c0 3.21-1.44 7.41-5.49 7.41zm13.57-17.91v21h6.36c7.71 0 10.23-5.7 10.23-10.5 0-5.22-2.76-10.5-10.11-10.5h-6.48zm6.87 17.61h-3.27v-14.22h3.6c3.99 0 5.67 3.57 5.67 7.11 0 3.3-1.53 7.11-6 7.11zm22.12 3.75c3.75 0 6.06-2.01 7.35-4.92l-3.33-1.26c-0.96 1.59-2.13 2.7-4.02 2.7-3.54 0-5.07-3.9-5.07-7.38 0-3.3 1.2-7.41 5.07-7.41 1.98 0 3.03 0.9 4.08 2.49l3.24-1.47c-0.9-2.22-3.33-4.47-7.32-4.47-6.48 0-8.79 6.03-8.79 10.86 0 5.19 2.25 10.86 8.79 10.86z" fill="url(#paint2_linear)"/>
  <path d="M114.111 107.444H141.889V163H114.111V107.444ZM78 79.6667H105.778V163H78V79.6667ZM150.222 63H178V163H150.222V63Z" fill="url(#paint3_linear)"/>
  <path d="m155.6 17v44.23c0 8.91 7.259 15.93 16.17 15.93l44.23-0.0112v-2l-60.4-58.15z" fill="#282828" opacity=".25"/>
  <path d="m155.6 15v44.23c0 8.91 7.259 15.93 16.17 15.93l44.23-0.0112-60.4-60.15z" fill="url(#paint4_linear)"/>
  <defs>
    <linearGradient id="paint0_linear" x1="127.5" x2="127.5" y1="186.5" y2="240.2" gradientUnits="userSpaceOnUse">
      <stop stop-color="#8ec07c" offset="1e-7"/>
      <stop stop-color="#689d6a" offset="1"/>
    </linearGradient>
    <linearGradient id="paint1_linear" x1="127.5" x2="127.5" y1="15" y2="240.2" gradientUnits="userSpaceOnUse">
      <stop stop-color="#8ec07c" offset="1e-7"/>
      <stop stop-color="#689d6a" offset="1"/>
    </linearGradient>
    <linearGradient id="paint2_linear" x1="127.5" x2="127.5" y1="192" y2="240" gradientUnits="userSpaceOnUse">
      <stop stop-color="#8ec07c" offset="1e-7"/>
      <stop stop-color="#689d6a" offset="1"/>
    </linearGradient>
    <linearGradient id="paint3_linear" x1="128" x2="128" y1="63" y2="163" gradientUnits="userSpaceOnUse">
      <stop stop-color="#8ec07c" offset="1e-7"/>
      <stop stop-color="#689d6a" offset="1"/>
    </linearGradient>
    <linearGradient id="paint4_linear" x1="185.8" x2="185.8" y1="15" y2="75.16" gradientUnits="userSpaceOnUse">
      <stop stop-color="#8ec07c" offset="1e-7"/>
      <stop stop-color="#689d6a" offset="1"/>
    </linearGradient>
  </defs>
</svg>
